src/hire/logo.svg

<svg width="32" height="32" viewBox="0 0 32 32" fill="none" xmlns="http://www.w3.org/2000/svg">
<path opacity="0.3" d="M20.011 15.9883C22.5971 17.7878 25.7356 18.8462 29.1179 18.8462C23.4541 18.8462 18.8462 23.4541 18.8462 29.1179C18.8462 25.7356 17.787 22.5971 15.9883 20.011C17.0795 18.4433 18.4433 17.0795 20.011 15.9883ZM11.9656 15.9883C9.3795 17.7878 6.24098 18.8462 2.85864 18.8462C8.52252 18.8462 13.1304 23.4541 13.1304 29.1179C13.1304 25.7356 14.1896 22.5971 15.9883 20.011C14.8971 18.4433 13.5333 17.0795 11.9656 15.9883ZM15.9883 11.9656C14.1888 9.3795 13.1304 6.24098 13.1304 2.85864C13.1304 8.52252 8.52252 13.1304 2.85864 13.1304C6.24098 13.1304 9.3795 14.1888 11.9656 15.9883C13.5333 14.8971 14.8971 13.5333 15.9883 11.9656ZM20.011 15.9883C22.5971 14.1888 25.7356 13.1304 29.1179 13.1304C23.4541 13.1304 18.8462 8.52252 18.8462 2.85864C18.8462 6.24098 17.787 9.3795 15.9883 11.9656C17.0795 13.5333 18.4433 14.8971 20.011 15.9883Z" fill="#738FFC"/>
<path d="M2.85792 13.1304C1.27987 13.1304 0 14.4095 0 15.9884C0 17.5672 1.27987 18.8463 2.85792 18.8463C6.24026 18.8463 9.37877 17.7879 11.9649 15.9884C9.37877 14.1889 6.24106 13.1304 2.85792 13.1304Z" fill="#738FFC"/>
<path d="M13.1304 29.1188C13.1304 30.6969 14.4095 31.9767 15.9884 31.9767C17.5672 31.9767 18.8463 30.6969 18.8463 29.1188C18.8463 25.7365 17.7871 22.598 15.9884 20.0118C14.1889 22.598 13.1304 25.7357 13.1304 29.1188Z" fill="#738FFC"/>
<path d="M29.1188 13.1304C25.7365 13.1304 22.598 14.1889 20.0118 15.9884C22.598 17.7879 25.7365 18.8463 29.1188 18.8463C30.6969 18.8463 31.9767 17.5672 31.9767 15.9884C31.9767 14.4095 30.6969 13.1304 29.1188 13.1304Z" fill="#738FFC"/>
<path d="M18.8463 2.85792C18.8463 1.27987 17.5672 0 15.9884 0C14.4095 0 13.1304 1.27987 13.1304 2.85792C13.1304 6.24026 14.1897 9.37877 15.9884 11.9649C17.7879 9.37877 18.8463 6.24106 18.8463 2.85792Z" fill="#738FFC"/>
</svg>

<svg fill="none" height="32" width="32" xmlns="http://www.w3.org/2000/svg"><g fill="#738ffc"><path d="M20.011 15.988a15.893 15.893 0 009.107 2.858c-5.664 0-10.272 4.608-10.272 10.272 0-3.382-1.059-6.52-2.858-9.107a16.135 16.135 0 014.023-4.023zm-8.045 0a15.893 15.893 0 01-9.107 2.858c5.664 0 10.271 4.608 10.271 10.272 0-3.382 1.06-6.52 2.858-9.107a16.135 16.135 0 00-4.022-4.023zm4.022-4.022a15.893 15.893 0 01-2.858-9.107c0 5.664-4.607 10.271-10.271 10.271 3.382 0 6.52 1.059 9.107 2.858a16.135 16.135 0 004.022-4.022zm4.023 4.022a15.893 15.893 0 019.107-2.858c-5.664 0-10.272-4.607-10.272-10.271 0 3.382-1.059 6.52-2.858 9.107a16.135 16.135 0 004.023 4.022z" opacity=".3"/><path d="M2.858 13.13a2.858 2.858 0 100 5.716c3.382 0 6.52-1.058 9.107-2.858a15.891 15.891 0 00-9.107-2.858zM13.13 29.119a2.858 2.858 0 105.716 0 15.9 15.9 0 00-2.858-9.107 15.892 15.892 0 00-2.858 9.107zM29.119 13.13c-3.382 0-6.521 1.059-9.107 2.858a15.893 15.893 0 009.107 2.858 2.858 2.858 0 100-5.716zM18.846 2.858a2.858 2.858 0 10-5.716 0 15.9 15.9 0 002.858 9.107 15.891 15.891 0 002.858-9.107z"/></g></svg>
